/* XPM */
static const char *icon_kicad[] = {
"32 32 38 1",
"a	c #573622",
"b	c #ba835c",
"c	c #c78d63",
"d	c #cf8758",
"e	c #b5754b",
"f	c #ad6c43",
"g	c #ac643a",
"h	c #925632",
"i	c #3a2315",
"j	c #eca876",
"k	c #c37a4c",
"l	c #2b1a0f",
"m	c #482b1a",
"n	c #52311e",
"o	c #8c4b27",
"p	c #633d27",
"q	c #71452c",
"r	c #9a603c",
"s	c #8b4415",
"t	c #ce630b",
"u	c #fc7803",
"v	c #703a1b",
"w	c #ae5410",
"x	c #c55e0d",
"y	c #e39a68",
"z	c #d79465",
"A	c #da905f",
"B	c #f9b886",
"C	c #f6b07e",
"D	c #9e6642",
"E	c #bb8a64",
"F	c #fec18f",
"G	c #be906b",
"H	c #ecaf81",
"I	c #a45b31",
"J	c #833e1c",
"K	c #1b100a",
"L	c #c06f3e",
"abcdbbbbeeeeeeeeefffffffgggggghi",
"ejcdddddkkeeeeeeefffffggggggggkh",
"edllllliiimmmmnnnmmmmiiillllllho",
"felimmmmmnaaappqqppaaammiiiiilho",
"rfliiimmmnaappqqqppaaanmmmmmilho",
"hgiiiiimmnaappaaaaamnnmnsttsmlgh",
"hglhfggggnaapahggggfhmmsuuuuvier",
"hglqkggggmapanffggegmmnwuuuuwikf",
"hflqkfekrmppmhdkkkkaaaawuuuuside",
"fklhdkddfmpnqdddddqapaavtuuxvice",
"edlhyddyfmaqzyAdyhaqppanvssnmize",
"ezlhyzyjemadjjyjfaqqqpaammmmmijb",
"bylhjjjjeleBjjCdaqqqqqafyzzyDljE",
"EjihCjjBfhBBBBypqqqqqqahBBCBflBE",
"cjihBBBBzjFBFjqpqqqqqqaqBBBBflBG",
"zBlhBBBBBBCBjhaqqqqqqqaqBBBFfljE",
"zHlhFBBjjjyjdmqqqqqqqqaqjjjFflze",
"bjlhBjjyzddddhaqqqqqqqaqzzyCDlkr",
"ezlhjjzddkeeedqaqqqqqqaqdkkyrlfh",
"hklqydkkgIgIIgfaqqqqqqaqfggkhlhq",
"oIlqdeggomgoooIhaqqqqqaqIhhghlov",
"volqeIhhhiqIoooIqaqqqqaqIooholov",
"volqIoooommhhooogaaqqqaqIooholhq",
"volqoJsoomangIhhIhnpppnqghoIolIo",
"qhlqhooIhmampgIIIghmppmqgIIIhlIo",
"oIlqIhIghmaamhggggfpmamqfggghlgo",
"oIKqgIgghiaaanggggggnmmqkggghlgh",
"hIlhfgfffmmaamhfgggegniheffeglgh",
"hIliiiimmmmaaaaaaaannnmmmiiiilgh",
"hIllllllliimmmmmmmmmiiillllllleh",
"oLIIgggggggggggggggffeeeeeeekkyf",
"ihhhhhhhhhhhhrgggfffffeeeeeeeeea"
};
