/* XPM */
static const char *icon_kicad_64[] = {
"64 64 42 1",
"a	c #0e0905",
"b	c #6f452d",
"c	c #7d5a40",
"d	c #76533a",
"e	c #583622",
"f	c #c88c62",
"g	c #f9b887",
"h	c #eea775",
"i	c #e49a68",
"j	c #e0935f",
"k	c #db905e",
"l	c #d18656",
"m	c #c47849",
"n	c #9d613b",
"o	c #f5b07e",
"p	c #d89465",
"q	c #ba7347",
"r	c #b1663a",
"s	c #482a19",
"t	c #b26c41",
"u	c #965530",
"v	c #53311d",
"w	c #2b1a0f",
"x	c #392315",
"y	c #1d120b",
"z	c #643c26",
"A	c #904a25",
"B	c #a55a31",
"C	c #6a371a",
"D	c #8b4419",
"E	c #b1560f",
"F	c #d66609",
"G	c #fb7703",
"H	c #7f4019",
"I	c #e36c07",
"J	c #c35f0c",
"K	c #5e412d",
"L	c #bd8259",
"M	c #fec290",
"N	c #833e1c",
"O	c #9e6440",
"P	c #c06f3f",
"aabcddddddddddddddddddddddddbbbbbbbbbbbbbbbbbbbbbbbbbbbbbbbbbeaa",
"afghhhhhhhhhhhhiiiiiiiiiijkkllllllllllllllllllllmmmmmmmmmmmmmmna",
"eohhhhhhhhiiiiiipkkllllllllllllllmmmmmmmmmmmmmmmmmmmmmmmmmmqrrms",
"bhipqqqqqqqttttttttttttrrrrrrrnnnnuuuuuuuuuuuuuuuuuuuuuuuuuurrrv",
"biiqawwwwwwwwwwwwwwwwxxxxxxxxssssssxxxxxxxxwwwwwwwwwwwwwwwyaurrs",
"bikqwxxxxxxxxxsssssssvveeeeeeeeeeeeeeeeevvsssssxxxxxxxxxwwwwurrs",
"zlltwxxxxxxssssssssveeeeeeezzzzzzzzzzzeeeeevssssxxxxxxxxxxwwABrs",
"ellrwxxxxssssssssssveeeeezzzzzbbzzzzzzzeeeevssssxxxxxxxxxxwwABrs",
"elmrwxxxxsssssssssveeeeeezzzzbbbbbbzzzzeeeeevvsssssssssxxxwwArrs",
"emmuwxxxxxxsssssssvveeeezzzzbbbbbzzzzzzeeeevvsssvvvvvvsssxxwurrs",
"emquwwwxxxxxxxxxxssveeeezzzzzeeeeeeeeeeeessssssvCCDEEDCCssxwurqv",
"emruwsxwwwwwwwxxxsvseeeeezzeevssssssssssssvvssCCDFGGGGFCCsxwuqmv",
"etruwsutttrrrrrrtrzseeeezzzezrtrrrrrrrrrtuzvsvCHGGGGGGGICvswnmme",
"etruwwzlttrrrrrrmtsseeeezzeezmqtttttttrmmCxsvCCJGGGGGGGGECswrmle",
"eqruwwsqrrrrrrrBmAxeeeeezeesumrrrrrrrrqqvxsvvCCIGGGGGGGGFCswtlle",
"emtuwxxtqrrrrrrrlbxeeeezzeevmmrtttttrqlzxsevvCDGGGGGGGGGICswqlpe",
"emmuwxxtmrtttttqlbseeezzeevrlqmqmmmqmlAsveeevCCIGGGGGGGGFCswqpie",
"emmrwxsqmqqmmmmmlbseezzeesulmmmmmmmmlBseeeeeeCCEGGGGGGGGECswqiiK",
"elltwxsqlmmmmmmmlbsezzzevbllllllllmktveeezeeevCHFGGGGGGFCCswqihK",
"bllqwxsqlllllllllbsezzeezlplllllllplzsezzzeeeeCCDFGGGGECCsswLihK",
"bipqwxsqplllllllpbsezzeeqipplllllplbsezbzzzeeeeCCCDDDDCCvsxwlhhb",
"biiqxxsmplkpppppibseeeeriiiipppkpiusebbbbzzeeeevCCCCCCCvssxwlhhb",
"bhhLxxsmippppiiiiAseevuihhhiiipiireebbbbbbzeeevssssssssxxxxwfhob",
"bhhlxxsmiiiiiiihiAsesbkhhhhhhiihmeebbbbbbbbzeebessssssssssxwpggb",
"bhhlxxsmhiihhhhhibxszlohhhhhhhhlbebbbbbbbbbzeenllllllllllbxxpggb",
"bohfxssmhhhhhhhhhbxvqhgggggghgpAebbbbbbbbbbzzeelgoohhhhhibxwpggb",
"bgofxssmhhhhhhhhhbwuhgggggggghuezbbbbbbbbbbbzesqohhhhhhhibxwpMMb",
"bggpxssmohhhhhhghbbigggggggghrezbbbbbbbbbbbbzestgggggohgizxxpMMb",
"dggpxssmgogggggghBlMggggggggmzebbbbbbbbbbbbbbestggggggggizxxpMMb",
"dMgpxssmgggggggggoggggggggglbebbbbbbbbbbbbbbbesrggggggggizxxpMMb",
"dMMpxssmggggggggggggggggggkbebbbbbbbbbbbbbbbbesrgggggggMizxxpggb",
"dMMpxssmggggggggggoohhhhhiuezbbbbbbbbbbbbbbbbesrgggggggMizxxpooK",
"dMMpxssmgggggggohhhhhhhhhrsebbbbbbbbbbbbbbbbbesrhhhhgggMizxxlhhe",
"bggpxssmggggghhhhhiiiiipimeebbbbbbbbbbbbbbbbbesuhhhhhhggizxxqiie",
"bggpxssqgggohhhiiippppkllirvebbbbbbbbbbbbbbbbesuippiihhgiCxxqllv",
"bhhfxxsqghhhhiippllllllllllAezbbbbbbbbbbbbbbbesuplllkiihpCxxtlls",
"ehhlxxsqohhhipklllmmmmmmmmllzebbbbbbbbbbbbbbbesulmllllpipCxxrmms",
"eiiqxxsqhhiipllmmlmttrrrrttltvebbbbbbbbbbbbbbesulqqqmmlllCxxurrs",
"ellqwxsqhipkllmqluqtBrBBrrrrluszbbbbbbbbbbbbbesumrtttqmmlvxxuBBs",
"smmrwxstilllmmtrlvCmBuuuuBBBrmzezbbbbbbbbbbbzesuqBrrrrrqlvwxAuus",
"srtuwxxtkllmqrrrmzwutAAAAAuuurtvebbbbbbbbbbbzesutuuBBBBrmvwxbAAs",
"srBAwxxtlmqtrrBuqzwsrrAAAAAAAAqusebbbbbbbbbbzesurAuuuuuBqvwwbAAs",
"sBuAwxxrmrrrBBuAtzxxCqAAAAAAAAAqbezbbbbbbbbbzesurAAAAAAuqvwwbAus",
"sAAbwxwrtBBuuAAAtzxsxbqAAAAAAAABtvezbbbbbbbbzesurAAAAAAAtvwwAuus",
"sAACwwwrBAAAAAAArzxvssBrAAAAAAAAtusezbbbbbbzzesurAAAAAAAtvwwAuBs",
"sAACwwwruAAAAAADrzxvvsstBAuAuuuuAqAsezbbbbzzeesurAuAAAAAtvwwABBs",
"suAbwwwrANDDDAAAtzxvevxzmuuuuuuuuBqCvezzbzzzeexurAuuuAAAqvwwABBs",
"sBubwwwrANDDAAAAtzxveevsAquBBBBBBurrveezzzzzeexutuBuuuuuqvwwArrs",
"sBBAwwwruNAAAAAAqzxveeessrtBBBBBBBBmuseezzzeeexuqBBBBBBuqvwwurrs",
"sBBAwwwruAAAAuBBmzxveeevsCqrBrBBBBBrmbseeeeeeexumBrBBBBBmvwwurrs",
"srBAwwwrBAuuBBBBmzxveeeevsbmrrrrrrrBtqvseeeeevxumrrrrrrrmvwwurrs",
"srrAwwwrBuBBBBrrmzxveeeeessumBrrrrrrBmrsseeeevxumrrrrrrrmvwwurrs",
"srruwwwrrBBBrrrrmbxsveeeeesvmrrrrrrrrrmAxsvvvsxumrrrrrrrmvwwurrs",
"srruwwwtrBBBrrrrmAxsveeeeevsuqrrrrrrrrrmbxsvssxumrrrrrrrmCwwurrs",
"srruwyzmrrrrrrtrmtxsveeeeeesbmrrrrrrrrrmlbxssxsqmttqtttrluwwurrs",
"srruysBmqqqqqqqqqtzssvveeeesztqqqqqqqqqqmrbsssbqqqqqqqqqqrsyurrs",
"srruyxswxxxxxxssssvssvveeeevevsvssvvsssssszvssvsssxxxxxxxsswutms",
"srruwwwwwwwwwwwwxxxssvveeeeeevvsssssssssssssssxxxwwwwwwwwwwwummv",
"srruwwwwwwxxxxxxxssssssssvveeeeeeeeeevvvsssssssxxxxxxxxxxxxwrmmv",
"srruayywwwwwwwwwwwwwwxxxxxxxxxxxxxxxxxxxxxxxwwwwwwwwwwwwwwwatlle",
"srrruuuuuuuuuuuuuuuuuuuuuuuuuuuuuuuuuuuuuuuunnnnnnnnOOttttttllke",
"sPrrrrrrrrrrrrrrrrrrrrrrrrrrrttqmmmmmmmmmmmmlllllllllllkpppipfhe",
"aumrtttmmmmmmmmmmmmmmmmmmmmmmmmmmmmmlllllllllllllkppiiiiiiiihhLa",
"aaebbbbbbbbbbbbbbbbbbbbbbbbbbbbbbbbbbbbbbbbbbbbddddddddddddddbaa"
};
